X:166
T:Have at the French
M:2/4
L:1/8
B:Thompson's Compleat Collection of 200 Favourite Country Dances, vol. 1 (London, 1757)
Z:Transcribed and edited by Flynn Titford-Mock, 2007
Z:abc's:AK/Fiddler's Companion
K:A
A|(A/B/c/d/) ee|feee|aeed|cBcA|(A/B/c/d/) ee|fdec|dBcA|GA B:|
|:A|(E/F/G/A/) BB|cABG|(A/B/c/d/) ee|fdec|(A/B/c/d/) ea|fdec|dBcA|EG A:|

